X:1620
T:Dowd's Favorite
O:england
M:4/4
L:1/8
C:Trad.
S:As Played By Andy McGann
R:Reel
K:Gm
G2|:DGGA BABG|D ~F3 CFAF|DGGA BABd|(3cBA fc AG G2|
DGGA BABG|D ~F2 dFcF|DGGA BABd|(3cBA fc AGGA:|
|:B2 (3dcB FBdB|FBdB cAFA|B2 (3dcB fBdB|cAFA BG G2|
(3Bcd Bd fBdc|(3Bcd Bd cAFA|GB (3ABc Bbag|fdcA BG G2:|
|:gd (3ddd g2 ag|fc (3ccc fgaf|gd (3ddd gbag|fdcA BGBd|
(3gag fa g2 ag|(3fgf =eg fdcA|GB (3ABc Bbag|fdcA BG G2:|


